icons/amaze.svg

<?xml version="1.0" encoding="UTF-8" standalone="no"?>
<svg
   xmlns:dc="http://purl.org/dc/elements/1.1/"
   xmlns:cc="http://creativecommons.org/ns#"
   xmlns:rdf="http://www.w3.org/1999/02/22-rdf-syntax-ns#"
   xmlns:svg="http://www.w3.org/2000/svg"
   xmlns="http://www.w3.org/2000/svg"
   xmlns:sodipodi="http://sodipodi.sourceforge.net/DTD/sodipodi-0.dtd"
   xmlns:inkscape="http://www.inkscape.org/namespaces/inkscape"
   width="192"
   height="192"
   viewBox="0 0 192 192"
   version="1.1"
   id="svg4"
   sodipodi:docname="amaze.svg"
   inkscape:version="0.92.1 r">
  <metadata
     id="metadata10">
    <rdf:RDF>
      <cc:Work
         rdf:about="">
        <dc:format>image/svg+xml</dc:format>
        <dc:type
           rdf:resource="http://purl.org/dc/dcmitype/StillImage" />
        <dc:title></dc:title>
      </cc:Work>
    </rdf:RDF>
  </metadata>
  <defs
     id="defs8" />
  <sodipodi:namedview
     pagecolor="#ffffff"
     bordercolor="#666666"
     borderopacity="1"
     objecttolerance="10"
     gridtolerance="10"
     guidetolerance="10"
     inkscape:pageopacity="0"
     inkscape:pageshadow="2"
     inkscape:window-width="640"
     inkscape:window-height="480"
     id="namedview6"
     showgrid="false"
     inkscape:pagecheckerboard="true"
     inkscape:zoom="2.6000906"
     inkscape:cx="2.4629771"
     inkscape:cy="77.959988"
     inkscape:current-layer="svg4" />
  <path
     d="M 18.418,27.932 A 9.746,9.746 0 0 0 8.65,37.697 v 28.21 h 174.7 V 53.7 a 9.742,9.742 0 0 0 -9.768,-9.763 h -43.94 c -8.795,-0.48 -15.328,-2.353 -15.328,-2.353 0,0 -30.23,-7.436 -40.826,-10.94 C 65.332,27.944 64,27.93 62.78,27.93 H 18.418 Z"
     id="path4493"
     style="fill:#ffffff;fill-opacity:1" />
  <path
     d="M 8.6503906 81.869141 L 8.6503906 154.30273 A 9.746 9.746 0 0 0 18.417969 164.06641 L 173.58203 164.06641 A 9.746 9.746 0 0 0 183.34961 154.30273 L 183.34961 81.869141 L 8.6503906 81.869141 z M 139.21875 92.033203 A 22.260948 22.260948 0 0 1 161.48047 114.29688 A 22.260948 22.260948 0 0 1 139.21875 136.55664 A 22.260948 22.260948 0 0 1 126.78711 132.74023 L 106.12305 153.4043 A 1.7030582 1.7030582 0 0 1 103.71094 153.4043 L 100.10742 149.79883 A 1.700932 1.700932 0 0 1 100.10742 147.39062 L 120.76562 126.73438 A 22.260948 22.260948 0 0 1 116.95703 114.29688 A 22.260948 22.260948 0 0 1 139.21875 92.035156 L 139.21875 92.033203 z M 139.21289 99.404297 L 139.21875 99.40625 A 14.889534 14.889534 0 0 0 124.33008 114.29492 A 14.889534 14.889534 0 0 0 128.53711 124.66797 A 14.889534 14.889534 0 0 0 139.21875 129.18359 A 14.889534 14.889534 0 0 0 154.10742 114.29297 A 14.889534 14.889534 0 0 0 139.21289 99.404297 z "
     id="path4491"
     style="fill:#ffffff;fill-opacity:1" />
</svg>

<svg xmlns="http://www.w3.org/2000/svg" width="192" height="192" viewBox="0 0 192 192">
    <path d="M18.418 27.932a9.746 9.746 0 0 0-9.768 9.765v28.21h174.7V53.7a9.742 9.742 0 0 0-9.768-9.763h-43.94c-8.795-.48-15.328-2.353-15.328-2.353s-30.23-7.436-40.826-10.94C65.332 27.944 64 27.93 62.78 27.93H18.418zM8.65 81.87v72.433a9.746 9.746 0 0 0 9.768 9.763h155.164a9.746 9.746 0 0 0 9.768-9.763V81.87H8.65zm130.57 10.163a22.26 22.26 0 0 1 22.26 22.264 22.26 22.26 0 0 1-22.26 22.26 22.26 22.26 0 0 1-12.433-3.817l-20.664 20.664a1.703 1.703 0 0 1-2.412 0l-3.603-3.605a1.7 1.7 0 0 1 0-2.41l20.66-20.656a22.26 22.26 0 0 1-3.81-12.437 22.26 22.26 0 0 1 22.262-22.262v-.002zm-.007 7.37l.006.003a14.89 14.89 0 0 0-14.89 14.89 14.89 14.89 0 0 0 4.207 10.372 14.89 14.89 0 0 0 10.682 4.516 14.89 14.89 0 0 0 14.887-14.89 14.89 14.89 0 0 0-14.894-14.89z" fill="#fff"/>
</svg>
